public/homepage-icons/github.svg

<svg xmlns="http://www.w3.org/2000/svg" xmlns:vectornator="http://vectornator.io" xml:space="preserve" stroke-miterlimit="10" style="fill-rule:nonzero;clip-rule:evenodd;stroke-linecap:round;stroke-linejoin:round" viewBox="0 0 97.627 96"><clipPath id="a"><path d="M0 0h97.627v96H0z"/></clipPath><g vectornator:layerName="Untitled" clip-path="url(#a)"><path vectornator:layerName="path" fill-rule="evenodd" d="M48.854 0C21.839 0 0 22 0 49.217c0 21.756 13.993 40.172 33.405 46.69 2.427.49 3.316-1.059 3.316-2.362 0-1.141-.08-5.052-.08-9.127-13.59 2.934-16.42-5.867-16.42-5.867-2.184-5.704-5.42-7.17-5.42-7.17-4.448-3.015.324-3.015.324-3.015 4.934.326 7.523 5.052 7.523 5.052 4.367 7.496 11.404 5.378 14.235 4.074.404-3.178 1.699-5.378 3.074-6.6-10.839-1.141-22.243-5.378-22.243-24.283 0-5.378 1.94-9.778 5.014-13.2-.485-1.222-2.184-6.275.486-13.038 0 0 4.125-1.304 13.426 5.052a46.971 46.971 0 0 1 12.214-1.63c4.125 0 8.33.571 12.213 1.63 9.302-6.356 13.427-5.052 13.427-5.052 2.67 6.763.97 11.816.485 13.038 3.155 3.422 5.015 7.822 5.015 13.2 0 18.905-11.404 23.06-22.324 24.283 1.78 1.548 3.316 4.481 3.316 9.126 0 6.6-.08 11.897-.08 13.526 0 1.304.89 2.853 3.316 2.364 19.412-6.52 33.405-24.935 33.405-46.691C97.707 22 75.788 0 48.854 0Z"/></g></svg>

<?xml version="1.0" encoding="UTF-8" standalone="no"?>
<!DOCTYPE svg PUBLIC "-//W3C//DTD SVG 1.1//EN" "http://www.w3.org/Graphics/SVG/1.1/DTD/svg11.dtd">
<!-- Created with Vectornator (http://vectornator.io/) -->
<svg height="100%" stroke-miterlimit="10" style="fill-rule:nonzero;clip-rule:evenodd;stroke-linecap:round;stroke-linejoin:round;" version="1.1" viewBox="0 0 97.6272 96.0004" width="100%" xml:space="preserve" xmlns="http://www.w3.org/2000/svg" xmlns:vectornator="http://vectornator.io" xmlns:xlink="http://www.w3.org/1999/xlink">
<defs/>
<clipPath id="ArtboardFrame">
<rect height="96.0004" width="97.6272" x="0" y="0"/>
</clipPath>
<g clip-path="url(#ArtboardFrame)" id="Untitled" vectornator:layerName="Untitled">
<path d="M48.854 0C21.839 0 0 22 0 49.217C0 70.973 13.993 89.389 33.405 95.907C35.832 96.397 36.721 94.848 36.721 93.545C36.721 92.404 36.641 88.493 36.641 84.418C23.051 87.352 20.221 78.551 20.221 78.551C18.037 72.847 14.801 71.381 14.801 71.381C10.353 68.366 15.125 68.366 15.125 68.366C20.059 68.692 22.648 73.418 22.648 73.418C27.015 80.914 34.052 78.796 36.883 77.492C37.287 74.314 38.582 72.114 39.957 70.892C29.118 69.751 17.714 65.514 17.714 46.609C17.714 41.231 19.654 36.831 22.728 33.409C22.243 32.187 20.544 27.134 23.214 20.371C23.214 20.371 27.339 19.067 36.64 25.423C40.6221 24.3457 44.7288 23.7976 48.854 23.793C52.979 23.793 57.184 24.364 61.067 25.423C70.369 19.067 74.494 20.371 74.494 20.371C77.164 27.134 75.464 32.187 74.979 33.409C78.134 36.831 79.994 41.231 79.994 46.609C79.994 65.514 68.59 69.669 57.67 70.892C59.45 72.44 60.986 75.373 60.986 80.018C60.986 86.618 60.906 91.915 60.906 93.544C60.906 94.848 61.796 96.397 64.222 95.908C83.634 89.388 97.627 70.973 97.627 49.217C97.707 22 75.788 0 48.854 0Z" fill="#000000" fill-rule="evenodd" opacity="1" stroke="none" vectornator:layerName="path"/>
</g>
</svg>
